usr/share/icons/biglinux-icons-material/symbolic/apps/org.gnome.Settings-power-symbolic.svg

<svg width="16px" height="16px" version="1.1" viewBox="0 0 16 16" xmlns="http://www.w3.org/2000/svg">
 <path d="m5 0c-0.554 0-1 0.446-1 1v1h-1c-1.662 0-3 1.338-3 3v8c0 1.662 1.338 3 3 3h6c0.89093 0 1.6859-0.38722 2.2344-1h-2.2344-0.5-5.5c-1.108 0-2-0.892-2-2v-8c0-1.108 0.892-2 2-2h1 1 2 1 1c0.74278 0 1.3874 0.40192 1.7324 1h1.0938c-0.41051-1.1667-1.5157-2-2.8262-2h-1v-1c0-0.554-0.446-1-1-1h-2zm0 1h2v1h-2v-1zm6 4a3 4.5 0 0 0-2.9805 4h-2.5195c-0.277 0-0.5 0.223-0.5 0.5s0.223 0.5 0.5 0.5h2.5195a3 4.5 0 0 0 2.9805 4h2c0.554 0 1-0.446 1-1v-1h1.5c0.277 0 0.5-0.223 0.5-0.5s-0.223-0.5-0.5-0.5h-1.5v-3h1.5c0.277 0 0.5-0.223 0.5-0.5s-0.223-0.5-0.5-0.5h-1.5v-1c0-0.554-0.446-1-1-1h-2zm0 1h2v7h-2a2 3.5 0 0 1-2-3.5 2 3.5 0 0 1 2-3.5z" fill="#363636"/>
</svg>

<svg xmlns="http://www.w3.org/2000/svg" width="16" height="16"><path fill="#dedede" d="M5 0c-.554 0-1 .446-1 1v1H3C1.338 2 0 3.338 0 5v8c0 1.662 1.338 3 3 3h6c.89 0 1.686-.387 2.234-1H3c-1.108 0-2-.892-2-2V5c0-1.108.892-2 2-2h6c.743 0 1.387.402 1.732 1h1.094A2.99 2.99 0 0 0 9 2H8V1c0-.554-.446-1-1-1H5zm0 1h2v1H5V1zm6 4a3 4.5 0 0 0-2.98 4H5.5a.499.499 0 1 0 0 1h2.52A3 4.5 0 0 0 11 14h2c.554 0 1-.446 1-1v-1h1.5a.499.499 0 1 0 0-1H14V8h1.5a.499.499 0 1 0 0-1H14V6c0-.554-.446-1-1-1h-2zm0 1h2v7h-2a2 3.5 0 0 1-2-3.5A2 3.5 0 0 1 11 6z"/></svg>
